X:1
T:F Major Samuel Babcock, 1803
T:John Newton, 1779 The Name of Jesus         86. 86. (C. M.)
T:Watertown
T:Transcribed from The Middlesex Harmony, 1803.
%%score [ 1 2 3 ]
L:1/8
Q:1/4=90
M:3/4
K:F
V:1 treble nm="Tr." snm="Tr."
V:2 treble-8 nm="T." snm="T."
V:3 bass nm="B." snm="B."
V:1
 c2 c2 c2 | c4 f2 | (B2 A2) G2 | (G2 F2) A2 | B4 B2 | B4 A2 | (A2 G2) F2 | A3 z c2 | f3 z F2 | %9
w: 1.~Je- sus, my|shep- herd|and * my|friend, * My|pro- phet,|priest, and|King; * My|Lord, my|life, my|
 A3 z c2 | f3 z f2 | (d2 c2) A2 | (B2 A2) G2 | F6 |[M:3/8] z3 | cfc | dd z | fcB | A2 G | A2 c | %20
w: way, my|end, Ac-|cept * the|praise * I|bring.||Weak is the|ef- fort|of * my|heart, and|cold my|
 fgf | (f e2- | e) z c |: c2 A/G/ | A2 c | c2 A/G/ | A z A/c/ | B2 A | GFE |1 F2 c :|2 F3 || %31
w: war- * mest|thought;~ _|_ But|when I *|see thee|as thou *|art, I'll *|praise thee|as * I|ought. But|ought.|
[M:6/8] z4 z A/B/ | c2 f cAf | c2 f cAf | d2 d def | (f3 e2) c | A2 c f2 c | A2 c f2 c | %38
w: 'Till *|then I would * thy|love pro- claim, * With|eve- ry flee- * ting|breath, * And|may the mu- sic|of thy name Re-|
 A2 A A2 c | (B3 A2) A |: Bcd G2 c | c2 f gec | c2 f c2 B |1 (B3 A3- ||1 A3) z2 A :|2 A6- || A6 |] %47
w: fresh my soul in|death. * And|may * the mu- sic|of thy name * Re-|fresh my soul in|death.~ _|_ And|death.~|_|
V:2
 A2 A2 A2 | A4 A2 | (d2 c2) B2 | (B2 A2) f2 | d4 d2 | (d2 e2) f2 | (f2 e2) F2 | A3 z c2 | f3 z F2 | %9
w: 2.~How sweet the|name of|Je- * sus|sounds * In|a be-|lie- * ver's|ear! * It|soothes his|sor- rows,|
 A3 z c2 | f3 z A2 | (B2 A2) f2 | (d2 c2) B2 | A6 |[M:3/8] z3 | Acf | dB z | cfe | f2 e | fcA | %20
w: heals his|wounds, And|drives * a-|way * his|fear.||It makes the|woun- ded|spi- * rit|whole, And|calms * the|
 B2 A | (A G2- | G) z C |: FAc | c2 f | FAc | c z f/e/ | d2 c | BAG |1 F2 C :|2 F3 || %31
w: trou- bled|breast;~ _|_ 'Tis|man- * na|for the|hun- * gry|soul, And *|to the|wea- * ry|rest. 'Tis|rest.|
[M:6/8] z4 z F/G/ | A2 A c2 c | f2 c A2 A | B2 B dc B/A/ | (A3 G2) A | c2 f c2 f | c2 f cde | %38
w: Dear *|name! the rock on|which I build, My|shield and hi- * ding *|place; * My|ne- ver- fai- ling|trea- sury filled * With|
 f2 c dfe | (d3 c2) f |: d2 d def | gec c2 f | fcB A2 G |1 (G3 F3- ||1 F3) z2 f :|2 F6- || F6 |] %47
w: bound- less stores * of|grace, * My|ne- ver- fai- * ling|trea- * sury filled with|bound- * less stores of|grace.~ _|_ My|grace.~|_|
V:3
 F,2 F,2 F,2 | F,4 F,2 | (B,2 C2) C,2 | F,4 F,2 | G,4 G,2 | G,4 F,2 | C,4 F,2 | A,3 z C2 | %8
 F,3 z F,2 | A,3 z C2 | F,3 z F,2 | (B,,2 C,2) D,2 | (B,,2 C,2) C,2 | F,6 |[M:3/8] z3 | F,F,F, | %16
 B,G, z | A,2 C | F,2 C | A,2 F, | D,E,F, | C,3- | C, z F, |: F,A,C | F,2 F, | F,A,C | F, z F, | %27
 B,,2 C, | D,B,,C, |1 F,2 F, :|2 F,3 ||[M:6/8] z4 z F, | F,2 F, F,2 F, | F,2 F, F,2 F, | %34
 G,2 G, G,2 F, | C,3- C,2 F, | A,2 F, A,2 F, | A,2 F, A,B,C | F,2 F, D,2 C, | F,3- F,2 F, |: %40
 G,2 G, G,2 F, | C,2 C, C,2 F,/G,/ | A,2 B, C2 C, |1 F,6- ||1 F,3 z2 F, :|2 F,6- || F,6 |] %47

